TEfficiency/docu4.svg

<svg xmlns="http://www.w3.org/2000/svg" viewBox="0 0 598 375" preserveAspectRatio="none" width="598" height="375">
 <path d="M0,0H598V375H0Z" style="fill: white;"></path>
 <g>
  <g transform="translate(60,38)">
   <path d="M0,0H478V300H0Z" style="fill: white; stroke: black; stroke-width: 1;"></path>
   <svg x="0" y="0" overflow="hidden" width="478" height="300" viewBox="0 0 478 300">
    <g>
     <g transform="translate(11,263)">
      <path style="stroke: black; stroke-width: 1; fill: none;" d="M0,0H-11m0,3v-6M0,0H11m0,3v-6M0,0V11m3,0h-6M0,0V-11m3,0h-6"></path>
     </g>
     <g transform="translate(33,213)">
      <path style="stroke: black; stroke-width: 1; fill: none;" d="M0,0H-11m0,3v-6M0,0H11m0,3v-6M0,0V11m3,0h-6M0,0V-11m3,0h-6"></path>
     </g>
     <g transform="translate(54,166)">
      <path style="stroke: black; stroke-width: 1; fill: none;" d="M0,0H-11m0,3v-6M0,0H11m0,3v-6M0,0V10m3,0h-6M0,0V-10m3,0h-6"></path>
     </g>
     <g transform="translate(76,149)">
      <path style="stroke: black; stroke-width: 1; fill: none;" d="M0,0H-11m0,3v-6M0,0H11m0,3v-6M0,0V10m3,0h-6M0,0V-10m3,0h-6"></path>
     </g>
     <g transform="translate(98,117)">
      <path style="stroke: black; stroke-width: 1; fill: none;" d="M0,0H-11m0,3v-6M0,0H11m0,3v-6M0,0V9m3,0h-6M0,0V-9m3,0h-6"></path>
     </g>
     <g transform="translate(120,100)">
      <path style="stroke: black; stroke-width: 1; fill: none;" d="M0,0H-11m0,3v-6M0,0H11m0,3v-6M0,0V8m3,0h-6M0,0V-8m3,0h-6"></path>
     </g>
     <g transform="translate(141,66)">
      <path style="stroke: black; stroke-width: 1; fill: none;" d="M0,0H-11m0,3v-6M0,0H11m0,3v-6M0,0V7m3,0h-6M0,0V-6m3,0h-6"></path>
     </g>
     <g transform="translate(163,51)">
      <path style="stroke: black; stroke-width: 1; fill: none;" d="M0,0H-11m0,3v-6M0,0H11m0,3v-6M0,0V6m3,0h-6M0,0V-5m3,0h-6"></path>
     </g>
     <g transform="translate(185,33)">
      <path style="stroke: black; stroke-width: 1; fill: none;" d="M0,0H-11m0,3v-6M0,0H11m0,3v-6M0,0V4m3,0h-6M0,0V-3m3,0h-6"></path>
     </g>
     <g transform="translate(206,27)">
      <path style="stroke: black; stroke-width: 1; fill: none;" d="M0,0H-11m0,3v-6M0,0H11m0,3v-6M0,0V3m3,0h-6M0,0V-1m3,0h-6"></path>
     </g>
     <g transform="translate(228,26)">
      <path style="stroke: black; stroke-width: 1; fill: none;" d="M0,0H-11m0,3v-6M0,0H11m0,3v-6M0,0V2m3,0h-6M0,0V-1m3,0h-6"></path>
     </g>
     <g transform="translate(250,29)">
      <path style="stroke: black; stroke-width: 1; fill: none;" d="M0,0H-11m0,3v-6M0,0H11m0,3v-6M0,0V3m3,0h-6M0,0V-2m3,0h-6"></path>
     </g>
     <g transform="translate(272,50)">
      <path style="stroke: black; stroke-width: 1; fill: none;" d="M0,0H-11m0,3v-6M0,0H11m0,3v-6M0,0V6m3,0h-6M0,0V-5m3,0h-6"></path>
     </g>
     <g transform="translate(293,65)">
      <path style="stroke: black; stroke-width: 1; fill: none;" d="M0,0H-11m0,3v-6M0,0H11m0,3v-6M0,0V7m3,0h-6M0,0V-6m3,0h-6"></path>
     </g>
     <g transform="translate(315,86)">
      <path style="stroke: black; stroke-width: 1; fill: none;" d="M0,0H-11m0,3v-6M0,0H11m0,3v-6M0,0V8m3,0h-6M0,0V-8m3,0h-6"></path>
     </g>
     <g transform="translate(337,134)">
      <path style="stroke: black; stroke-width: 1; fill: none;" d="M0,0H-11m0,3v-6M0,0H11m0,3v-6M0,0V10m3,0h-6M0,0V-9m3,0h-6"></path>
     </g>
     <g transform="translate(359,148)">
      <path style="stroke: black; stroke-width: 1; fill: none;" d="M0,0H-11m0,3v-6M0,0H11m0,3v-6M0,0V10m3,0h-6M0,0V-9m3,0h-6"></path>
     </g>
     <g transform="translate(380,186)">
      <path style="stroke: black; stroke-width: 1; fill: none;" d="M0,0H-11m0,3v-6M0,0H11m0,3v-6M0,0V11m3,0h-6M0,0V-10m3,0h-6"></path>
     </g>
     <g transform="translate(402,236)">
      <path style="stroke: black; stroke-width: 1; fill: none;" d="M0,0H-11m0,3v-6M0,0H11m0,3v-6M0,0V11m3,0h-6M0,0V-11m3,0h-6"></path>
     </g>
     <g transform="translate(424,264)">
      <path style="stroke: black; stroke-width: 1; fill: none;" d="M0,0H-11m0,3v-6M0,0H11m0,3v-6M0,0V11m3,0h-6M0,0V-11m3,0h-6"></path>
     </g>
     <path d="M11,263h1M33,213h1M54,166h1M76,149h1M98,117h1m21,-17h1M141,66h1M163,51h1M185,33h1m20,-6h1m21,-1h1m21,3h1m21,21h1m20,15h1m21,21h1m21,48h1m21,14h1m20,38h1m21,50h1m21,28h1" style="stroke: black; fill: none;"></path>
    </g>
    <g>
     <path d="M2,120h5h4h4h5h4h4h5h4h4h5h4h4h5h4h5h4h4h5h4h4h5h4h4h5h4h4h5h4h4h5h4h4h5h4h4h5h4h4h5h4h5h4h4h5h4h4h5h4h4h5h4h4h5h4h4h5h4h4h5h4h4h5h4h4h5h4h4h5h4h5h4h4h5h4h4h5h4h4h5h4h4h5h4h4h5h4h4h5h4h4h5h4h4h5h4h5h4h4h5" style="fill: none; stroke: #ff0000; stroke-width: 2;"></path>
    </g>
    <g>
     <path d="M2,270l5,-7l4,-7l4,-6l5,-7l4,-7l4,-7l5,-7l4,-7l4,-7l5,-7l4,-7l4,-7l5,-7l4,-7l5,-7l4,-7l4,-7l5,-6l4,-7l4,-6l5,-7l4,-6l4,-6l5,-6l4,-6l4,-6l5,-5l4,-5l4,-6l5,-5l4,-4l4,-5l5,-4l4,-5l4,-3l5,-4l4,-4l4,-3l5,-3l4,-2l5,-3l4,-2l4,-2l5,-2l4,-1l4,-1l5,-1h4l4,-1h5l4,1h4l5,1l4,1l4,2l5,1l4,2l4,3l5,2l4,3l4,3l5,3l4,4l4,3l5,4l4,5l4,4l5,5l4,5l5,5l4,5l4,5l5,6l4,5l4,6l5,6l4,6l4,7l5,6l4,7l4,6l5,7l4,7l4,6l5,7l4,7l4,7l5,7l4,7l4,7l5,7l4,7l4,7l5,7l4,7l5,7l4,7l4,7l5,7" style="fill: none; stroke: red; stroke-width: 2;"></path>
    </g>
   </svg>
   <g>
    <g transform="translate(0,300)">
     <path d="M0,0h478M0,-11V0M22,-6V0M43,-6V0M65,-6V0M87,-11V0M109,-6V0M130,-6V0M152,-6V0M174,-11V0M196,-6V0M217,-6V0M239,-6V0M261,-11V0M282,-6V0M304,-6V0M326,-6V0M348,-11V0M369,-6V0M391,-6V0M413,-6V0M435,-11V0M456,-6V0M478,-6V0" style="stroke: black; stroke-width: 1;"></path>
     <g font-family="Arial" font-size="13" space="preserve" fill="black" text-anchor="middle">
      <text dy=".8em" transform="translate(0,1)">
       0
      </text>
      <text dy=".8em" transform="translate(87,1)">
       2
      </text>
      <text dy=".8em" transform="translate(174,1)">
       4
      </text>
      <text dy=".8em" transform="translate(261,1)">
       6
      </text>
      <text dy=".8em" transform="translate(348,1)">
       8
      </text>
      <text dy=".8em" transform="translate(435,1)">
       10
      </text>
     </g>
    </g>
    <g>
     <path d="M0,0v300M9,292H0M9,283H0M9,273H0M18,264H0M9,254H0M9,245H0M9,235H0M9,225H0M18,216H0M9,206H0M9,197H0M9,187H0M9,178H0M18,168H0M9,159H0M9,149H0M9,139H0M9,130H0M18,120H0M9,111H0M9,101H0M9,92H0M9,82H0M18,73H0M9,63H0M9,53H0M9,44H0M9,34H0M18,25H0M9,15H0M9,6H0" style="stroke: black; stroke-width: 1;"></path>
     <g font-family="Arial" font-size="13" space="preserve" fill="black" text-anchor="end">
      <text dy=".4em" transform="translate(-2,264)">
       0.5
      </text>
      <text dy=".4em" transform="translate(-2,216)">
       0.6
      </text>
      <text dy=".4em" transform="translate(-2,168)">
       0.7
      </text>
      <text dy=".4em" transform="translate(-2,120)">
       0.8
      </text>
      <text dy=".4em" transform="translate(-2,73)">
       0.9
      </text>
      <text dy=".4em" transform="translate(-2,25)">
       1
      </text>
     </g>
    </g>
   </g>
  </g>
  <g transform="translate(60,2)" font-family="Arial" font-size="19" space="preserve">
   <text fill="black" text-anchor="middle" dy=".8em" transform="translate(239)">
    my efficiency
   </text>
  </g>
 </g>
</svg>

<svg xmlns="http://www.w3.org/2000/svg" viewBox="0 0 598 375" preserveAspectRatio="none" width="598" height="375">
 <path d="M0,0H598V375H0Z" style="fill: white;"></path>
 <g>
  <g transform="translate(60,38)">
   <path d="M0,0H478V300H0Z" style="fill: white; stroke: black; stroke-width: 1;"></path>
   <svg x="0" y="0" overflow="hidden" width="478" height="300" viewBox="0 0 478 300">
    <g>
     <g transform="translate(11,263)">
      <path style="stroke: black; stroke-width: 1; fill: none;" d="M0,0H-11m0,3v-6M0,0H11m0,3v-6M0,0V11m3,0h-6M0,0V-11m3,0h-6"></path>
     </g>
     <g transform="translate(33,213)">
      <path style="stroke: black; stroke-width: 1; fill: none;" d="M0,0H-11m0,3v-6M0,0H11m0,3v-6M0,0V11m3,0h-6M0,0V-11m3,0h-6"></path>
     </g>
     <g transform="translate(54,166)">
      <path style="stroke: black; stroke-width: 1; fill: none;" d="M0,0H-11m0,3v-6M0,0H11m0,3v-6M0,0V10m3,0h-6M0,0V-10m3,0h-6"></path>
     </g>
     <g transform="translate(76,149)">
      <path style="stroke: black; stroke-width: 1; fill: none;" d="M0,0H-11m0,3v-6M0,0H11m0,3v-6M0,0V10m3,0h-6M0,0V-10m3,0h-6"></path>
     </g>
     <g transform="translate(98,117)">
      <path style="stroke: black; stroke-width: 1; fill: none;" d="M0,0H-11m0,3v-6M0,0H11m0,3v-6M0,0V9m3,0h-6M0,0V-9m3,0h-6"></path>
     </g>
     <g transform="translate(120,100)">
      <path style="stroke: black; stroke-width: 1; fill: none;" d="M0,0H-11m0,3v-6M0,0H11m0,3v-6M0,0V8m3,0h-6M0,0V-8m3,0h-6"></path>
     </g>
     <g transform="translate(141,66)">
      <path style="stroke: black; stroke-width: 1; fill: none;" d="M0,0H-11m0,3v-6M0,0H11m0,3v-6M0,0V7m3,0h-6M0,0V-6m3,0h-6"></path>
     </g>
     <g transform="translate(163,51)">
      <path style="stroke: black; stroke-width: 1; fill: none;" d="M0,0H-11m0,3v-6M0,0H11m0,3v-6M0,0V6m3,0h-6M0,0V-5m3,0h-6"></path>
     </g>
     <g transform="translate(185,33)">
      <path style="stroke: black; stroke-width: 1; fill: none;" d="M0,0H-11m0,3v-6M0,0H11m0,3v-6M0,0V4m3,0h-6M0,0V-3m3,0h-6"></path>
     </g>
     <g transform="translate(206,27)">
      <path style="stroke: black; stroke-width: 1; fill: none;" d="M0,0H-11m0,3v-6M0,0H11m0,3v-6M0,0V3m3,0h-6M0,0V-1m3,0h-6"></path>
     </g>
     <g transform="translate(228,26)">
      <path style="stroke: black; stroke-width: 1; fill: none;" d="M0,0H-11m0,3v-6M0,0H11m0,3v-6M0,0V2m3,0h-6M0,0V-1m3,0h-6"></path>
     </g>
     <g transform="translate(250,29)">
      <path style="stroke: black; stroke-width: 1; fill: none;" d="M0,0H-11m0,3v-6M0,0H11m0,3v-6M0,0V3m3,0h-6M0,0V-2m3,0h-6"></path>
     </g>
     <g transform="translate(272,50)">
      <path style="stroke: black; stroke-width: 1; fill: none;" d="M0,0H-11m0,3v-6M0,0H11m0,3v-6M0,0V6m3,0h-6M0,0V-5m3,0h-6"></path>
     </g>
     <g transform="translate(293,65)">
      <path style="stroke: black; stroke-width: 1; fill: none;" d="M0,0H-11m0,3v-6M0,0H11m0,3v-6M0,0V7m3,0h-6M0,0V-6m3,0h-6"></path>
     </g>
     <g transform="translate(315,86)">
      <path style="stroke: black; stroke-width: 1; fill: none;" d="M0,0H-11m0,3v-6M0,0H11m0,3v-6M0,0V8m3,0h-6M0,0V-8m3,0h-6"></path>
     </g>
     <g transform="translate(337,134)">
      <path style="stroke: black; stroke-width: 1; fill: none;" d="M0,0H-11m0,3v-6M0,0H11m0,3v-6M0,0V10m3,0h-6M0,0V-9m3,0h-6"></path>
     </g>
     <g transform="translate(359,148)">
      <path style="stroke: black; stroke-width: 1; fill: none;" d="M0,0H-11m0,3v-6M0,0H11m0,3v-6M0,0V10m3,0h-6M0,0V-9m3,0h-6"></path>
     </g>
     <g transform="translate(380,186)">
      <path style="stroke: black; stroke-width: 1; fill: none;" d="M0,0H-11m0,3v-6M0,0H11m0,3v-6M0,0V11m3,0h-6M0,0V-10m3,0h-6"></path>
     </g>
     <g transform="translate(402,236)">
      <path style="stroke: black; stroke-width: 1; fill: none;" d="M0,0H-11m0,3v-6M0,0H11m0,3v-6M0,0V11m3,0h-6M0,0V-11m3,0h-6"></path>
     </g>
     <g transform="translate(424,264)">
      <path style="stroke: black; stroke-width: 1; fill: none;" d="M0,0H-11m0,3v-6M0,0H11m0,3v-6M0,0V11m3,0h-6M0,0V-11m3,0h-6"></path>
     </g>
     <path d="M11,263h1M33,213h1M54,166h1M76,149h1M98,117h1m21,-17h1M141,66h1M163,51h1M185,33h1m20,-6h1m21,-1h1m21,3h1m21,21h1m20,15h1m21,21h1m21,48h1m21,14h1m20,38h1m21,50h1m21,28h1" style="stroke: black; fill: none;"></path>
    </g>
    <g>
     <path d="M2,120L7,120L11,120L15,120L20,120L24,120L28,120L33,120L37,120L41,120L46,120L50,120L54,120L59,120L63,120L68,120L72,120L76,120L81,120L85,120L89,120L94,120L98,120L102,120L107,120L111,120L115,120L120,120L124,120L128,120L133,120L137,120L141,120L146,120L150,120L154,120L159,120L163,120L167,120L172,120L176,120L181,120L185,120L189,120L194,120L198,120L202,120L207,120L211,120L215,120L220,120L224,120L228,120L233,120L237,120L241,120L246,120L250,120L254,120L259,120L263,120L267,120L272,120L276,120L280,120L285,120L289,120L293,120L298,120L302,120L307,120L311,120L315,120L320,120L324,120L328,120L333,120L337,120L341,120L346,120L350,120L354,120L359,120L363,120L367,120L372,120L376,120L380,120L385,120L389,120L393,120L398,120L402,120L406,120L411,120L415,120L420,120L424,120L428,120L433,120" style="fill: none; stroke: #ff0000; stroke-width: 2;"></path>
    </g>
    <g>
     <path d="M2,270L7,263L11,256L15,250L20,243L24,236L28,229L33,222L37,215L41,208L46,201L50,194L54,187L59,180L63,173L68,166L72,159L76,152L81,146L85,139L89,133L94,126L98,120L102,114L107,108L111,102L115,96L120,91L124,86L128,80L133,75L137,71L141,66L146,62L150,57L154,54L159,50L163,46L167,43L172,40L176,38L181,35L185,33L189,31L194,29L198,28L202,27L207,26L211,26L215,25L220,25L224,26L228,26L233,27L237,28L241,30L246,31L250,33L254,36L259,38L263,41L267,44L272,47L276,51L280,54L285,58L289,63L293,67L298,72L302,77L307,82L311,87L315,92L320,98L324,103L328,109L333,115L337,121L341,128L346,134L350,141L354,147L359,154L363,161L367,167L372,174L376,181L380,188L385,195L389,202L393,209L398,216L402,223L406,230L411,237L415,244L420,251L424,258L428,265L433,272" style="fill: none; stroke: red; stroke-width: 2;"></path>
    </g>
   </svg>
   <g>
    <g transform="translate(0,300)">
     <path d="M0,0h478M0,-11V0M22,-6V0M43,-6V0M65,-6V0M87,-11V0M109,-6V0M130,-6V0M152,-6V0M174,-11V0M196,-6V0M217,-6V0M239,-6V0M261,-11V0M282,-6V0M304,-6V0M326,-6V0M348,-11V0M369,-6V0M391,-6V0M413,-6V0M435,-11V0M456,-6V0M478,-6V0" style="stroke: black; stroke-width: 1;"></path>
     <g font-family="Arial" font-size="13" space="preserve" fill="black" text-anchor="middle">
      <text dy=".8em" transform="translate(0,1)">
       0
      </text>
      <text dy=".8em" transform="translate(87,1)">
       2
      </text>
      <text dy=".8em" transform="translate(174,1)">
       4
      </text>
      <text dy=".8em" transform="translate(261,1)">
       6
      </text>
      <text dy=".8em" transform="translate(348,1)">
       8
      </text>
      <text dy=".8em" transform="translate(435,1)">
       10
      </text>
     </g>
    </g>
    <g>
     <path d="M0,0v300M9,292H0M9,283H0M9,273H0M18,264H0M9,254H0M9,245H0M9,235H0M9,225H0M18,216H0M9,206H0M9,197H0M9,187H0M9,178H0M18,168H0M9,159H0M9,149H0M9,139H0M9,130H0M18,120H0M9,111H0M9,101H0M9,92H0M9,82H0M18,73H0M9,63H0M9,53H0M9,44H0M9,34H0M18,25H0M9,15H0M9,6H0" style="stroke: black; stroke-width: 1;"></path>
     <g font-family="Arial" font-size="13" space="preserve" fill="black" text-anchor="end">
      <text dy=".4em" transform="translate(-2,264)">
       0.5
      </text>
      <text dy=".4em" transform="translate(-2,216)">
       0.6
      </text>
      <text dy=".4em" transform="translate(-2,168)">
       0.7
      </text>
      <text dy=".4em" transform="translate(-2,120)">
       0.8
      </text>
      <text dy=".4em" transform="translate(-2,73)">
       0.9
      </text>
      <text dy=".4em" transform="translate(-2,25)">
       1
      </text>
     </g>
    </g>
   </g>
  </g>
  <g transform="translate(60,2)" font-family="Arial" font-size="19" space="preserve">
   <text fill="black" text-anchor="middle" dy=".8em" transform="translate(239)">
    my efficiency
   </text>
  </g>
 </g>
</svg>
